X:550
T: Buck in the Wood
T: Boc sa gCoill
S: "Ceol Rince na hEireann" 1/15
Z: B.Black
L: 1/8
M: 6/8
R: jig
K: G
d|BGB dBG|cAG FGA|BGB dBG|cAF G2A|
BGB BGB|AFA AFA|def gdB|cAF G2 ||
A|GBd ded|cAG FGA|GBd GBd|cAF G2d|
G2d ded|cAG FGA|def gdB|cAF G2 ||
A|BGB dBG|cAG FGA|BGG dBG|cAF G2A|
BGB dBG|cAG FGA|d2e fdB|cAF G2 ||
